X:1
T: Lord of Carnarvon's Jig
N:
C:
S:Tune is: Jack a Lent
A:
O:
R:
M:4/4
K:G
I:speed 180
%W:         A1                                                              A2
% voice 1 (1 lines, 34 notes)
K:G
M:4/4
L:1/16
d8 d4 c2 B2 |A2 G2 A2 B2 c4 B2 A2 |G4 G4 G4 g4 |f8 e8 |d8 d4 c2 B2 |A2 G2 A2 B2 c4 B2 A2 |G4 G4 G4 g4 |f8 e8 |
%W:         B1                                                              B2
% voice 1 (1 lines, 50 notes)
B6 c2 d4 c2 B2 |A2 G2 A2 B2 A2 B2 c2 d2 |B2 c2 B2 A2 G4 g2 a2 |f2 e2 f2 g2 e8 |B6 c2 d4 c2 B2 |A2 G2 A2 B2 A2 B2 c2 d2 |B2 c2 B2 A2 G4 g2 a2 |f2 e2 f2 g2 e8 |
%W:         A3                                                              A4
% voice 1 (1 lines, 34 notes)
d8 d4 c2 B2 |A2 G2 A2 B2 c4 B2 A2 |G4 G4 G4 g4 |f8 e8 |d8 d4 c2 B2 |A2 G2 A2 B2 c4 B2 A2 |G4 G4 G4 g4 |f8 e8 |
%W:         B3                                                              B4
% voice 1 (1 lines, 50 notes)
B6 c2 d4 c2 B2 |A2 G2 A2 B2 A2 B2 c2 d2 |B2 c2 B2 A2 G4 g2 a2 |f2 e2 f2 g2 e8 |B6 c2 d4 c2 B2 |A2 G2 A2 B2 A2 B2 c2 d2 |B2 c2 B2 A2 G4 g2 a2 |f2 e2 f2 g2 e8 |
